static/img/index/partners/keygen_color_dark.svg

<svg width="173" height="60" fill="none" xmlns="http://www.w3.org/2000/svg"><path d="m21.674.393 34.843 14.41-2.261 32.435-20.693 11.949L.493 38.535 21.675.393ZM8.506 36.465l25.178 15.723 14.808-8.55 1.739-24.941L24.323 7.982 8.506 36.465Z" fill="#04FA9B"/><path fill-rule="evenodd" clip-rule="evenodd" d="M73.464 30.76a49.72 49.72 0 0 0 1.314-1.602c.444-.564.876-1.146 1.296-1.746.42-.6.822-1.182 1.206-1.746.384-.564.72-1.098 1.008-1.602h5.328a56.457 56.457 0 0 1-1.476 1.8c-.552.648-1.122 1.308-1.71 1.98a71.21 71.21 0 0 1-1.764 1.944c-.588.624-1.122 1.2-1.602 1.728.6.576 1.248 1.266 1.944 2.07.696.804 1.38 1.638 2.052 2.502.672.864 1.29 1.728 1.854 2.592a23.723 23.723 0 0 1 1.35 2.304h-5.076c-.288-.6-.666-1.278-1.134-2.034-.468-.756-.966-1.5-1.494-2.232a43.278 43.278 0 0 0-1.602-2.088 17.803 17.803 0 0 0-1.494-1.638v7.992H69V16.756L73.464 16v14.76Zm12.384 1.908c0-1.488.228-2.796.684-3.924.456-1.128 1.056-2.07 1.8-2.826a7.423 7.423 0 0 1 2.556-1.71 7.882 7.882 0 0 1 2.952-.576c2.496 0 4.392.738 5.688 2.214 1.296 1.476 1.944 3.63 1.944 6.462 0 .288-.006.588-.018.9-.012.312-.03.564-.054.756H90.42c0 1.104.456 1.974 1.368 2.61.912.636 2.088.954 3.528.954.888 0 1.734-.096 2.538-.288a21.548 21.548 0 0 0 2.034-.576l.612 3.78c-.768.264-1.584.486-2.448.666-.864.18-1.836.27-2.916.27-1.44 0-2.73-.186-3.87-.558-1.14-.372-2.112-.924-2.916-1.656-.804-.732-1.422-1.638-1.854-2.718-.432-1.08-.648-2.34-.648-3.78Zm11.34-1.764c0-.456-.06-.894-.18-1.314a3.271 3.271 0 0 0-.576-1.134 2.922 2.922 0 0 0-1.008-.81c-.408-.204-.912-.306-1.512-.306-.576 0-1.074.096-1.494.288-.42.192-.768.456-1.044.792s-.492.72-.648 1.152a5.649 5.649 0 0 0-.306 1.332h6.768Zm22.536-6.84a425.598 425.598 0 0 0-1.314 4.662c-.42 1.524-.858 3.012-1.314 4.464a88.943 88.943 0 0 1-1.458 4.266 61.403 61.403 0 0 1-1.674 4.068c-.456.96-.906 1.788-1.35 2.484-.444.696-.936 1.266-1.476 1.71-.54.444-1.14.774-1.8.99-.66.216-1.434.324-2.322.324a10.6 10.6 0 0 1-2.034-.18c-.612-.12-1.122-.276-1.53-.468l.828-3.708c.48.216.906.366 1.278.45a5.47 5.47 0 0 0 1.206.126c.864 0 1.56-.288 2.088-.864a6.558 6.558 0 0 0 1.26-2.052c-1.056-2.112-2.112-4.53-3.168-7.254-1.056-2.724-2.016-5.73-2.88-9.018h4.608a102.9 102.9 0 0 0 1.62 5.868 71.75 71.75 0 0 0 .99 2.97 47.9 47.9 0 0 0 1.062 2.718c.24-.84.492-1.746.756-2.718s.516-1.956.756-2.952a220.354 220.354 0 0 0 1.332-5.886h4.536Zm6.696 7.92c0 1.392.252 2.454.756 3.186.504.732 1.296 1.098 2.376 1.098.48 0 .93-.06 1.35-.18.42-.12.798-.276 1.134-.468v-8.136a7.662 7.662 0 0 0-.9-.144 9.152 9.152 0 0 0-.828-.036c-2.592 0-3.888 1.56-3.888 4.68Zm10.08 6.948c0 2.76-.666 4.8-1.998 6.12-1.332 1.32-3.474 1.98-6.426 1.98-1.056 0-2.07-.108-3.042-.324a30.461 30.461 0 0 1-2.79-.756l.828-3.744c.696.264 1.428.51 2.196.738.768.228 1.728.342 2.88.342.768 0 1.404-.09 1.908-.27.504-.18.9-.426 1.188-.738a2.68 2.68 0 0 0 .612-1.098c.12-.42.18-.87.18-1.35v-.684c-.624.24-1.194.42-1.71.54-.516.12-1.074.18-1.674.18-2.208 0-3.882-.696-5.022-2.088-1.14-1.392-1.71-3.324-1.71-5.796 0-2.784.768-4.86 2.304-6.228 1.536-1.368 3.624-2.052 6.264-2.052 1.848 0 3.852.3 6.012.9v14.328Zm3.348-6.264c0-1.488.228-2.796.684-3.924.456-1.128 1.056-2.07 1.8-2.826a7.423 7.423 0 0 1 2.556-1.71 7.882 7.882 0 0 1 2.952-.576c2.496 0 4.392.738 5.688 2.214 1.296 1.476 1.944 3.63 1.944 6.462 0 .288-.006.588-.018.9-.012.312-.03.564-.054.756h-10.98c0 1.104.456 1.974 1.368 2.61.912.636 2.088.954 3.528.954.888 0 1.734-.096 2.538-.288a21.548 21.548 0 0 0 2.034-.576l.612 3.78c-.768.264-1.584.486-2.448.666-.864.18-1.836.27-2.916.27-1.44 0-2.73-.186-3.87-.558-1.14-.372-2.112-.924-2.916-1.656-.804-.732-1.422-1.638-1.854-2.718-.432-1.08-.648-2.34-.648-3.78Zm11.34-1.764c0-.456-.06-.894-.18-1.314a3.271 3.271 0 0 0-.576-1.134 2.922 2.922 0 0 0-1.008-.81c-.408-.204-.912-.306-1.512-.306-.576 0-1.074.096-1.494.288-.42.192-.768.456-1.044.792s-.492.72-.648 1.152a5.649 5.649 0 0 0-.306 1.332h6.768Zm7.812-6.3c.792-.216 1.77-.42 2.934-.612a23.383 23.383 0 0 1 3.798-.288c1.344 0 2.46.186 3.348.558.888.372 1.59.9 2.106 1.584.516.684.882 1.5 1.098 2.448.216.948.324 1.998.324 3.15v9.54h-4.428V32.02c0-1.584-.18-2.724-.54-3.42-.36-.696-1.092-1.044-2.196-1.044a13.4 13.4 0 0 0-.99.036c-.324.024-.666.06-1.026.108v13.284H159v-16.38Z" fill="#fff"/></svg>

<svg width="173" height="60" viewBox="0 0 173 60" fill="none" xmlns="http://www.w3.org/2000/svg">
<path d="M21.6743 0.39325L56.5168 14.8034L54.2556 47.2376L33.5633 59.1867L0.493713 38.535L21.6743 0.39325ZM8.50629 36.465L33.6842 52.1883L48.492 43.6374L50.2308 18.6966L24.3233 7.98175L8.50629 36.465Z" fill="#04FA9B"/>
<path fill-rule="evenodd" clip-rule="evenodd" d="M73.464 30.76C73.896 30.256 74.334 29.722 74.778 29.158C75.222 28.594 75.654 28.012 76.074 27.412C76.494 26.812 76.896 26.23 77.28 25.666C77.664 25.102 78 24.568 78.288 24.064H83.616C83.184 24.616 82.692 25.216 82.14 25.864C81.588 26.512 81.018 27.172 80.43 27.844C79.842 28.516 79.254 29.164 78.666 29.788C78.078 30.412 77.544 30.988 77.064 31.516C77.664 32.092 78.312 32.782 79.008 33.586C79.704 34.39 80.388 35.224 81.06 36.088C81.732 36.952 82.35 37.816 82.914 38.68C83.478 39.544 83.928 40.312 84.264 40.984H79.188C78.9 40.384 78.522 39.706 78.054 38.95C77.586 38.194 77.088 37.45 76.56 36.718C76.032 35.986 75.498 35.29 74.958 34.63C74.418 33.97 73.92 33.424 73.464 32.992V40.984H69V16.756L73.464 16V30.76ZM85.848 32.668C85.848 31.18 86.076 29.872 86.532 28.744C86.988 27.616 87.588 26.674 88.332 25.918C89.076 25.162 89.928 24.592 90.888 24.208C91.848 23.824 92.832 23.632 93.84 23.632C96.336 23.632 98.232 24.37 99.528 25.846C100.824 27.322 101.472 29.476 101.472 32.308C101.472 32.596 101.466 32.896 101.454 33.208C101.442 33.52 101.424 33.772 101.4 33.964H90.42C90.42 35.068 90.876 35.938 91.788 36.574C92.7 37.21 93.876 37.528 95.316 37.528C96.204 37.528 97.05 37.432 97.854 37.24C98.658 37.048 99.336 36.856 99.888 36.664L100.5 40.444C99.732 40.708 98.916 40.93 98.052 41.11C97.188 41.29 96.216 41.38 95.136 41.38C93.696 41.38 92.406 41.194 91.266 40.822C90.126 40.45 89.154 39.898 88.35 39.166C87.546 38.434 86.928 37.528 86.496 36.448C86.064 35.368 85.848 34.108 85.848 32.668ZM97.188 30.904C97.188 30.448 97.128 30.01 97.008 29.59C96.888 29.17 96.696 28.792 96.432 28.456C96.168 28.12 95.832 27.85 95.424 27.646C95.016 27.442 94.512 27.34 93.912 27.34C93.336 27.34 92.838 27.436 92.418 27.628C91.998 27.82 91.65 28.084 91.374 28.42C91.098 28.756 90.882 29.14 90.726 29.572C90.57 30.004 90.468 30.448 90.42 30.904H97.188ZM119.724 24.064C119.268 25.648 118.83 27.202 118.41 28.726C117.99 30.25 117.552 31.738 117.096 33.19C116.64 34.642 116.154 36.064 115.638 37.456C115.122 38.848 114.564 40.204 113.964 41.524C113.508 42.484 113.058 43.312 112.614 44.008C112.17 44.704 111.678 45.274 111.138 45.718C110.598 46.162 109.998 46.492 109.338 46.708C108.678 46.924 107.904 47.032 107.016 47.032C106.272 47.032 105.594 46.972 104.982 46.852C104.37 46.732 103.86 46.576 103.452 46.384L104.28 42.676C104.76 42.892 105.186 43.042 105.558 43.126C105.93 43.21 106.332 43.252 106.764 43.252C107.628 43.252 108.324 42.964 108.852 42.388C109.38 41.812 109.8 41.128 110.112 40.336C109.056 38.224 108 35.806 106.944 33.082C105.888 30.358 104.928 27.352 104.064 24.064H108.672C108.888 24.952 109.134 25.9 109.41 26.908C109.686 27.916 109.98 28.924 110.292 29.932C110.604 30.94 110.934 31.93 111.282 32.902C111.63 33.874 111.984 34.78 112.344 35.62C112.584 34.78 112.836 33.874 113.1 32.902C113.364 31.93 113.616 30.946 113.856 29.95C114.096 28.954 114.33 27.952 114.558 26.944C114.786 25.936 114.996 24.976 115.188 24.064H119.724ZM126.42 31.984C126.42 33.376 126.672 34.438 127.176 35.17C127.68 35.902 128.472 36.268 129.552 36.268C130.032 36.268 130.482 36.208 130.902 36.088C131.322 35.968 131.7 35.812 132.036 35.62V27.484C131.7 27.412 131.4 27.364 131.136 27.34C130.872 27.316 130.596 27.304 130.308 27.304C127.716 27.304 126.42 28.864 126.42 31.984ZM136.5 38.932C136.5 41.692 135.834 43.732 134.502 45.052C133.17 46.372 131.028 47.032 128.076 47.032C127.02 47.032 126.006 46.924 125.034 46.708C124.062 46.492 123.132 46.24 122.244 45.952L123.072 42.208C123.768 42.472 124.5 42.718 125.268 42.946C126.036 43.174 126.996 43.288 128.148 43.288C128.916 43.288 129.552 43.198 130.056 43.018C130.56 42.838 130.956 42.592 131.244 42.28C131.532 41.968 131.736 41.602 131.856 41.182C131.976 40.762 132.036 40.312 132.036 39.832V39.148C131.412 39.388 130.842 39.568 130.326 39.688C129.81 39.808 129.252 39.868 128.652 39.868C126.444 39.868 124.77 39.172 123.63 37.78C122.49 36.388 121.92 34.456 121.92 31.984C121.92 29.2 122.688 27.124 124.224 25.756C125.76 24.388 127.848 23.704 130.488 23.704C132.336 23.704 134.34 24.004 136.5 24.604V38.932ZM139.848 32.668C139.848 31.18 140.076 29.872 140.532 28.744C140.988 27.616 141.588 26.674 142.332 25.918C143.076 25.162 143.928 24.592 144.888 24.208C145.848 23.824 146.832 23.632 147.84 23.632C150.336 23.632 152.232 24.37 153.528 25.846C154.824 27.322 155.472 29.476 155.472 32.308C155.472 32.596 155.466 32.896 155.454 33.208C155.442 33.52 155.424 33.772 155.4 33.964H144.42C144.42 35.068 144.876 35.938 145.788 36.574C146.7 37.21 147.876 37.528 149.316 37.528C150.204 37.528 151.05 37.432 151.854 37.24C152.658 37.048 153.336 36.856 153.888 36.664L154.5 40.444C153.732 40.708 152.916 40.93 152.052 41.11C151.188 41.29 150.216 41.38 149.136 41.38C147.696 41.38 146.406 41.194 145.266 40.822C144.126 40.45 143.154 39.898 142.35 39.166C141.546 38.434 140.928 37.528 140.496 36.448C140.064 35.368 139.848 34.108 139.848 32.668ZM151.188 30.904C151.188 30.448 151.128 30.01 151.008 29.59C150.888 29.17 150.696 28.792 150.432 28.456C150.168 28.12 149.832 27.85 149.424 27.646C149.016 27.442 148.512 27.34 147.912 27.34C147.336 27.34 146.838 27.436 146.418 27.628C145.998 27.82 145.65 28.084 145.374 28.42C145.098 28.756 144.882 29.14 144.726 29.572C144.57 30.004 144.468 30.448 144.42 30.904H151.188ZM159 24.604C159.792 24.388 160.77 24.184 161.934 23.992C163.098 23.8 164.364 23.704 165.732 23.704C167.076 23.704 168.192 23.89 169.08 24.262C169.968 24.634 170.67 25.162 171.186 25.846C171.702 26.53 172.068 27.346 172.284 28.294C172.5 29.242 172.608 30.292 172.608 31.444V40.984H168.18V32.02C168.18 30.436 168 29.296 167.64 28.6C167.28 27.904 166.548 27.556 165.444 27.556C165.108 27.556 164.778 27.568 164.454 27.592C164.13 27.616 163.788 27.652 163.428 27.7V40.984H159V24.604Z" fill="white"/>
</svg>
